X:4332
T:Mon Vieux Wagon
O:england
M:2/4
L:1/16
A:Cajun
K:D
a2a2 fedB|A2d2 f4|a2a2 fedB|AFE2 D4|
a2a2 fedB|A2c2 e4|A2c2 eee2|f2e2 d4|
f2f2 edBA|A2d2 f4|f2f2 edBA|f2e2 d4|
f2f2 edBA|A2c2 e4|A2c2 eee2|f2e2 d4|]


